svgs/regular/square-0.svg

<svg xmlns="http://www.w3.org/2000/svg" viewBox="0 0 448 512"><!-- Font Awesome Pro 6.0.0-alpha2 by @fontawesome - https://fontawesome.com License - https://fontawesome.com/license (Commercial License) --><path d="M384 32H64C28.654 32 0 60.654 0 96V416C0 451.346 28.654 480 64 480H384C419.346 480 448 451.346 448 416V96C448 60.654 419.346 32 384 32ZM400 416C400 424.822 392.822 432 384 432H64C55.178 432 48 424.822 48 416V96C48 87.178 55.178 80 64 80H384C392.822 80 400 87.178 400 96V416ZM224 128C171.062 128 128 171.062 128 224V288C128 340.938 171.062 384 224 384S320 340.938 320 288V224C320 171.062 276.938 128 224 128ZM272 288C272 314.469 250.469 336 224 336S176 314.469 176 288V224C176 197.531 197.531 176 224 176S272 197.531 272 224V288Z"/></svg>

<svg xmlns="http://www.w3.org/2000/svg" viewBox="0 0 448 512"><!--! Font Awesome Pro 6.0.0-alpha3 by @fontawesome - https://fontawesome.com License - https://fontawesome.com/license (Commercial License) --><path d="M384 32H64C28.65 32 0 60.65 0 96v320c0 35.35 28.65 64 64 64h320c35.35 0 64-28.65 64-64V96C448 60.65 419.3 32 384 32zM400 416c0 8.822-7.178 16-16 16H64c-8.822 0-16-7.178-16-16V96c0-8.822 7.178-16 16-16h320c8.822 0 16 7.178 16 16V416zM224 128C171.1 128 128 171.1 128 224v64c0 52.94 43.06 96 96 96s96-43.06 96-96V224C320 171.1 276.9 128 224 128zM272 288c0 26.47-21.53 48-48 48S176 314.5 176 288V224c0-26.47 21.53-48 48-48s48 21.53 48 48V288z"/></svg>
